lib/assets/images/profile.svg

<svg width="40" height="40" viewBox="0 0 40 40" fill="none" xmlns="http://www.w3.org/2000/svg">
<path fill-rule="evenodd" clip-rule="evenodd" d="M20 33C27.1797 33 33 27.1797 33 20C33 12.8203 27.1797 7 20 7C12.8203 7 7 12.8203 7 20C7 27.1797 12.8203 33 20 33ZM24 17C24 14.7867 22.2133 13 20 13C17.7867 13 16 14.7867 16 17C16 19.2133 17.7867 21 20 21C22.2133 21 24 19.2133 24 17ZM27.4687 27.3803C27.7253 27.1206 27.8071 26.7261 27.6063 26.4212C26.3703 24.545 22.503 23.5333 20 23.5333C17.497 23.5333 13.6297 24.545 12.3937 26.4212C12.1929 26.726 12.2747 27.1206 12.5313 27.3802C14.4348 29.3064 17.078 30.5 20 30.5C22.922 30.5 25.5652 29.3064 27.4687 27.3803Z" fill="black"/>
</svg>

<svg width="40" height="40" fill="none" xmlns="http://www.w3.org/2000/svg"><path fill-rule="evenodd" clip-rule="evenodd" d="M20 33c7.18 0 13-5.82 13-13S27.18 7 20 7 7 12.82 7 20s5.82 13 13 13zm4-16c0-2.213-1.787-4-4-4s-4 1.787-4 4 1.787 4 4 4 4-1.787 4-4zm3.469 10.38c.256-.26.338-.654.137-.959-1.236-1.876-5.103-2.888-7.606-2.888s-6.37 1.012-7.606 2.888c-.201.305-.12.7.137.96A10.468 10.468 0 0 0 20 30.5c2.922 0 5.565-1.194 7.469-3.12z" fill="#000"/></svg>
